X:71
T:The Rakes of Mallow
N:Called "Sandy Lent the Man His Mill" in some old books
Z:John Chambers <jc@trillian.mit.edu>
R:reel
M:4/4
L:1/4
K:A
Ac Ac | Ac d/c/B/A/ | GB GB | GB e/d/c/B/ | Ac Ac | Ac e2 |  d/c/B/A/ G/A/B/d/ | cA A2 ::
ag/f/ ed | cd e2 | ag/f/ ed | ce B2 | ag/f/ ed | cd e2 | d/c/B/A/ G/A/B/d/ | cA A2 :|
